X:1
T: Nancy Hynes
C:
R:Jig
Q:180
K:D
M:6/8
L:1/16
G2|A6 c2A2G2|A4d2 c2A2G2|F4D2 D2E2D2|F2A2F2 G2E2D2|A6 c2A2G2|A4G2 A2d2e2|f2e2d2 e2c2A2|d2e2d2 d4G2|
A6 c2A2G2|A4d2 c2A2G2|F4D2 D2E2D2|F2A2F2 G2E2D2|A6 c2A2G2|A4G2 A2d2e2|f2e2d2 e2c2A2|d2e2d2 d4de|
f2g2f2 f2e2d2|e2f2e2 e2d2c2|d2e2d2 d2c2d2|e2c2A2 A4ag|f2g2f2 f2e2d2|e2f2e2 e2d2c2|f2a2f2 g2e2c2|d2e2d2 d4de|
f2g2f2 f2e2d2|e2f2e2 e2d2c2|d2e2d2 d2c2d2|e2c2A2 A4ag|f4d2 e2d2c2|d2e2d2 c2A2G2|A4d2 c2A2G2|A2d2d2 d4(3ABc|
d2e2d2 c2d2c2|B2A2B2 c2A2G2|F4D2 D2E2D2|F2A2F2 G2E2D2|A6 c2A2G2|A4G2 A2d2e2|f4d2 e2c2A2|d2e2d2 d4(3ABc|
d2e2d2 c2d2c2|B2A2B2 c2A2G2|F4D2 D2E2D2|F2A2F2 G2E2D2|A6 c2A2G2|A4G2 A2d2e2|f4d2 e2c2A2|d2e2d2 d4||
